!!!COA:	Josquin des Prez
!!!CDT:	~1450-1521/08/27
!!!COM: Richafort
!!!OTL:	N'avez point veu mal assen&eacute;e
!!!AGN:	Chanson
!!!SCT:	NJE 27.28
!!!SCA:	New Josquin Edition 27.28
!!!voices:	3
**kern	**kern	**kern
*staff3	*staff2	*staff1
*Ivox	*Ivox	*Ivox
*I"Bassus	*I"Tenor	*I"Superius
*I'B	*I'T	*I'S
*clefF4	*clefGv2	*clefGv2
*k[]	*k[]	*k[]
*M2/1	*M2/1	*M2/1
*met(C|)	*met(C|)	*met(C|)
=1-	=1-	=1-
2AA/	0r	0r
4AA/	.	.
4BB/	.	.
2C/	.	.
2C/	.	.
=2	=2	=2
2C/	2E/	1r
2C/	4E/	.
.	4F/	.
2.GG/	2G/	2B\
.	2G/	4B\
4AA/	.	4c\
=3	=3	=3
4BB/	2G/	2d\
4AA/	.	.
4BB/	2G/	2d\
4C/	.	.
1D	1F	2d\
.	.	2d\
=4	=4	=4
1AA	0E	1c
1r	.	[1B
=5	=5	=5
2E\	1r	1B]
4E\	.	.
4F\	.	.
2G\	2B\	1r
2E\	4B\	.
.	4c\	.
=6	=6	=6
2F\	2d\	1r
2D\	2B\	.
2.C/	2c\	2e\
.	2A/	4e\
4D\	.	4f\
=7	=7	=7
2E\	2G/	2g\
2C/	2.A/	2e\
2D\	.	2f\
.	4G/	.
2BB/	2G/	2d\
=8	=8	=8
2.AA/	2A/	2c\
.	4G/	2e\
4BB/	4F/	.
2C/	4E/	2e\
.	4F/	.
2GG/	4G/	[2d\
.	4E/	.
=9	=9	=9
1AA	4F/	4d\]
.	4E/	4c\
.	4D/	1c
.	4C/	.
1GG	1D	.
.	.	2B\
=10	=10	=10
1C	0C	[0c
1r	.	.
=11	=11	=11
2AA/	0r	0c]
4AA/	.	.
4BB/	.	.
2C/	.	.
2C/	.	.
=12	=12	=12
2C/	2E/	1r
2C/	4E/	.
.	4F/	.
2.GG/	2G/	2B\
.	2G/	4B\
4AA/	.	4c\
=13	=13	=13
4BB/	2G/	2d\
4AA/	.	.
4BB/	2G/	2d\
4C/	.	.
1D	1F	2d\
.	.	2d\
=14	=14	=14
1AA	0E	1c
1r	.	[1B
=15	=15	=15
2E\	1r	1B]
4E\	.	.
4F\	.	.
2G\	2B\	1r
2E\	4B\	.
.	4c\	.
=16	=16	=16
2F\	2d\	1r
2D\	2B\	.
2.C/	2c\	2e\
.	2A/	4e\
4D\	.	4f\
=17	=17	=17
2E\	2G/	2g\
2C/	2.A/	2e\
2D\	.	2f\
.	4G/	.
2BB/	2G/	2d\
=18	=18	=18
2.AA/	2A/	2c\
.	4G/	1e
4BB/	4F/	.
2C/	4E/	.
.	4F/	.
2GG/	4G/	[2d\
.	4E/	.
=19	=19	=19
1AA	4F/	4d\]
.	4E/	4c\
.	4D/	1c
.	4C/	.
1GG	1D	.
.	.	2B\
=20	=20	=20
1C	0C	0c
2r	.	.
2E\	.	.
=21	=21	=21
2D\	2r	1r
2D\	2A/	.
2.AA/	2A/	2r
.	2A/	2e\
4BB/	.	.
=22	=22	=22
2C/	2.E/	2e\
2AA/	.	2e\
.	4F/	.
2.GG/	2G/	2.B\
.	2E/	.
4AA/	.	4c\
=23	=23	=23
4BB/	2.D/	2d\
4C/	.	.
1D	.	2B\
.	4E/	.
.	4F/	2.A/
.	4G/	.
4C/	[2A/	.
4BB/	.	4B\
=24	=24	=24
2.AA/	2A/]	4c\
.	.	4d\
.	4G/	1e
4BB/	4F/	.
2C/	2.E/	.
2AA/	.	4d\
.	4F/	4c\
=25	=25	=25
2.GG/	2G/	2.B\
.	2E/	.
4AA/	.	4c\
2BB-/	2.D/	2d\
2GG/	.	2B\
.	4E/	.
=26	=26	=26
2FF/	2F/	2.A/
2F\	2D/	.
.	.	4B\
2E\	2C/	4c\
.	.	4d\
2C/	2c\	[2e\
=27	=27	=27
2E\	2B\	4e\]
.	.	4d\
2F\	1A	1c
1D	.	.
.	4G/	2B\
.	4F/	.
=28	=28	=28
1C	0E	2A/
.	.	2G/
2r	.	1c
[2C/	.	.
=29	=29	=29
2C/]	2r	0r
2BB/	1G	.
2C/	.	.
2D\	2F/	.
=30	=30	=30
2E\	2.G/	0r
2E\	.	.
.	4A/	.
2D\	2B\	.
2G\	2B\	.
=31	=31	=31
2F\	2A/	0r
2.A\	2c\	.
.	2.B\	.
4G\	.	.
[2G\	.	.
.	4G/	.
=32	=32	=32
2G\]	1A	1r
2F#i\	.	.
2G\	1G	2g\
2r	.	4g\
.	.	4a\
=33	=33	=33
2G\	1r	2.g\
4G\	.	.
4A\	.	4f\
2.G\	2G/	2e\
.	4G/	2d\
4F\	4A/	.
=34	=34	=34
2E\	2.G/	2c\
2D\	.	2B\
.	4F/	.
2C/	2E/	2c\
2BB/	2D/	2d\
=35	=35	=35
1C	2C/	1e
.	2.c\	.
1GG	.	1d
.	8B/L	.
.	8A/J	.
.	2B\	.
=36	=36	=36
[0C	1c	1r
.	1r	2g\
.	.	4g\
.	.	4a\
=37	=37	=37
0C]	2c\	2.g\
.	4c\	.
.	4d\	4f\
.	2.c\	2e\
.	.	2d\
.	4B\	.
=38	=38	=38
1r	2A/	1c
.	2A/	.
2E\	2G/	2e\
4E\	2c\	4e\
4A\	.	4f\
=39	=39	=39
2.G\	2.B\	2.e\
4F\	4A/	4d\
2E\	2G/	2c\
2D\	2F/	2B\
=40	=40	=40
1C	1G	0c
2r	1G	.
2E\	.	.
=41	=41	=41
2D\	2r	1r
2D\	2A/	.
2.AA/	2A/	2r
.	2A/	2e\
4BB/	.	.
=42	=42	=42
2C/	2.E/	2e\
2AA/	.	2e\
.	4F/	.
[1GG	2G/	2.B\
.	2E/	.
.	.	4c\
=43	=43	=43
1GG]	2D/	2d\
.	2D/	2B\
2r	2F/	1A
2D\	2F/	.
=44	=44	=44
2C/	2E/	2r
2AA/	2C/	2c\
1GG	2D/	2B\
.	2D/	2B\
=45	=45	=45
2.AA/	1C	[0c
4BB/	.	.
1C	2r	.
.	2E/	.
=46	=46	=46
2AA/	4E/	0c]
.	4E/	.
4AA/	2E/	.
4AA/	.	.
2AA/	2E/	.
2AA/	2F/	.
=47	=47	=47
2BB/	2G/	1r
2C/	2.A/	.
[1D	.	2A/
.	4G/	.
.	4F#i/	4A/
.	4E/	4A/
=48	=48	=48
1D]	2F#i/	2A/
.	4G/	2A/
.	4F#i/	.
2GG/	2G/	2B\
2AA/	2r	2c\
=49	=49	=49
2BB/	2.G/	2d\
2.C/	.	1e
.	4F/	.
.	4E/	.
4BB/	4D/	.
2GG/	2G/	[2d\
=50	=50	=50
1AA	4F/	4d\]
.	4E/	4c\
.	4D/	2.c\
.	4C/	.
1GG	1D	.
.	.	8B/L
.	.	8A/J
.	.	4c\
.	.	4B\
=51	=51	=51
2.AA/	1C	[0c
4BB/	.	.
1C	2r	.
.	2E/	.
=52	=52	=52
2AA/	4E/	0c]
.	4E/	.
4AA/	2E/	.
4AA/	.	.
2AA/	2E/	.
2AA/	2F/	.
=53	=53	=53
2BB/	2G/	1r
2C/	2.A/	.
[1D	.	2A/
.	4G/	.
.	4F#i/	4A/
.	4E/	4A/
=54	=54	=54
1D]	2F#i/	2A/
.	4G/	2A/
.	4F#i/	.
2GG/	2G/	2B\
2AA/	2r	2c\
=55	=55	=55
2BB/	2.G/	2d\
2.C/	.	1e
.	4F/	.
.	4E/	.
4BB/	4D/	.
2GG/	2G/	[2d\
=56	=56	=56
1AA	4F/	4d\]
.	4E/	4c\
.	4D/	1c
.	4C/	.
1GG	1D	.
.	.	2B\
=57	=57	=57
0Cl	0Cl	0cl
==	==	==
*-	*-	*-
!!!RDF**kern: l=long note in original notation
!!!RDF**kern: i=editorial accidental
!!!ENC:	Mauricio Rodriguez 2012/01/31
!!!END:	2012/01/31/
!!!EED:	Jesse Rodin
!!!EEV:	2012/05/25/
!!attribution-level@Jos: 5 (doubtful)
!!!ONB:	Translated from MusicXML and edited on 2012/05/25/ by Craig Sapp
!!muse2ps: C^@{COA}?\n@{SCT}^i2I150v85,85,150Q16
